X:1
T:The Battle of Sherra-Moor
M:2/4
L:1/8
K:F
 z2 z d| cF FF| AF Ad| cF FF| c2 Ac| BG GG| BG AG| BG GG| c2 AG| Ff fg|\
 fd cA| Gg ga| g/2g/2 fe d| cf fg| fd cf| eg df| eg df| eg df| eg df|\
 f3/2 g/2 ag| f2 ed| cF FF| AF Ad| cF FF| c2 Ac| BG GG| BG GG| BG GG|\
 c2 A z|

